X:1
T:Atvadu dziedājums
T:mel. A. Orłowski harm. pr. Andris Solims
T:Teksts no poļu dz. "Daj wieczny pokój". Atdzejojis pr. A. Solims
T:Atvadu dziedājums
T:(W mogile ciemnej)
C:mel. A. Orłowski
C:harm. pr. Andris Solims
Z:Teksts no poļu dz.
Z:"Daj wieczny pokój".
Z:Atdzejojis pr. A. Solims
%%score { ( 1 2 ) | ( 3 4 ) }
L:1/8
Q:1/4=60
M:4/4
K:C
V:1 treble nm="P1"
V:2 treble 
V:3 bass 
V:4 bass 
V:1
!mp!"^Lento" E2 (F/E/) (^D/E/) c3 B | A3 G F2 E2 |!mf! B2 (c/B/) (^A/B/) d3 c | B3 c B z z2 | %4
w: 1. žī- * * go mie- ru|dā- vā vi- ņam(ai),|Kungs, pie- * ņem * mū- su|lūg- ša- nu!|
w: 2. sma- * * giem dar- biem|do- dies sa- ņemt|mū- žī- * go * al- gu|de- be- sīs.|
!<(! E2 (F/E/) (^D/E/) c3!<)! B | A3 G F2 E2 |!f! (Ee)cA B3 ^G | A2 A>A A2 z2 || %8
w: 1. vi- * ņa(as) * at- va-|do- ties, lū- dzam:|"Dā- * vā tam(ai) grē- ku|pie- do- ša- nu!"|
w: 2. * tik daudz * cie- ta,|glāb- jot te- vi,|* ar Tē- vu mū- žam|dzī- vo- si tu.|
!f!"^$""^Refrēns" B2 B>B B z z2 |"^cresc." c2!<(! c>c c z!<)!!ff! z2 | d2!<(! d>d d z!<)!!fff! z2 | %11
w: Var- būt jau drīz|mēs tik- si- mies,|jo a- rī mūs|
w: |||
 e2 e>e e4 | %12
w: Dievs pa- sauks turp.|
w: |
"^rit."!mf!"^(Pēc 2. panta Refrēna seko Coda  \"Pie Dieva troņa\" un Refrēns ar palēninājumu pēdējā rindā!)""^(beigās)" E2 (F/E/) (^D/E/) =c3 B | %13
w: Uz ī- * * su brī- di|
w: |
 A3 G F2 E2 |!f! (Ee)cA B3 ^G |"^rit." A2 A>A A2 z2!fine! :| %16
w: at- va- da- mies:|"Ar * Die- vu! Tik- si-|mies de- be- sīs!"|
w: |||
!mf!"^Maestoso"[Q:1/4=70]"^Coda" G2 G>A G2 G>A | G2 G>c e3 d |!mp! e3 d e3 d | c3 A G2 z2 | %20
w: Pie Die- va tro- ņa mēs|lūg- ša- nas sū- tam:|"Dā- vā mie- ru|mū- žī- go!"|
w: ||||
!mf! G2!<(! G>A G2 G>!<)!A | G2 G>c e3 d |!<(! e3 d!<)! e3 d | c2 c>c c2 z2!fine! || %24
w: Kaut mū- su sir- dis ir|sa- žņaug- tas sē- rās,|at- mirdz as'- rās|ce- rī- bas stars.|
w: ||||
V:2
 C2 CC E3 =D | E3 E D2 C2 | E2 EE ^G3 =A | ^G3 A G x x2 | C2 (D/C/)B, E3 F | E3 E D2 D2 | %6
 (CE)FF F3 E | F2 E>D E2 x2 || E2 E>E E x x2 | E2 E>E E x x2 | G2 G>^F G x x2 | ^G2 G>G G4 | %12
 E2 (D/^C/)B, E3 E | F3 E D2 D2 | (EA)AF F3 E | E2 E>E E2 x2 :| E2 E>F E2 E>F | (EF) E>E G3 F | %18
 G3 F (GAG)F | E3 F E2 x2 | E2 E>F (ED) E>F | E2 F>E (G2 c)B | c3 B c3 B | G2 G>G G2 x2 || %24
V:3
 A,2 A,E, A,3 ^G, | A,3 A, A,2 A,2 | ^G,2 A,/G,/ ^F,/G,/ B,3 C | D3 ^D E z z2 | %4
 A,2 ^G,/A,/ A,/G,/ A,3 D | C3 ^C A,=C B,^G, | A,CA,C D3 D | D2 C>B, C2 z2 || %8
 ^G,2 G,>G, G,!f! z z2 | A,2 A,>A, C z z2 | B,2 D>C B,!ff! z z2 | B,2 B,>B, B,4 | %12
 C2 B,/^A,/ =A,/^G,/ C3 C | C3 ^C DA, A,^G, | =CEFD DCB,D | C2 E>D C2 z2 :| C2 C>C CG,A,B, | %17
 CB, C>C C3 B, | C3 A, G,CB,B, | G,A,CB, C2 z2 | C2 C>C CB, A,>B, | CB, B,>G, C3 E | E^F G2 G3 =F | %23
 E2 E>E E2 z2 || %24
V:4
 A,,2 A,,A,, A,,3 B,, | C,3 ^C, D,2 A,,2 | E,2 E,E, E,3 ^D, | E,3 ^F, E,E,=F,E, | %4
w: ||||
w: ||||
w: |||* * * Kungs, pie- ņem,|
w: |||* * * tu do- dies,|
 A,,2 B,,/C,/ B,,/E,/ A,3 ^G, | A,3 A, D,2 E,2 | A,=G,F,F, D,3 E, | A,2 A,>A, A,2 x2 || %8
w: ||||
w: ||||
w: ||||
w: ||||
 E,2 E,>E, E,D,C,B,, | A,,2 C,>E, A,E,C,A,, | G,2 B,>A, G,F,E,D, | E,2 E,>E, E,4 | %12
w: ||||
w: ||||
w: * * * * Var- būt drīz|* * * * tik- si- mies,|* * * * mūs a- rī||
w: ||||
 A,2 ^G,/=G,/ ^F,/E,/ A,3 =G, | =F,3 E, D,2 E,2 | A,CDF, D,3 E, | A,2 C>B, A,2 x2 :| %16
w: ||||
w: ||||
w: ||||
w: ||||
 C,2 C,>C, C,2 C,>C, | C,D, E,>G, CB,A,G, | C,D,E,F, G,^F,=F,D, | C,3 C, C,2 x2 | %20
w: ||||
w: ||||
w: ||||
w: ||||
 C,D, E,>F, G,2 F,>F, | E,2 D,>C, C,E,G,^G, | A,2 =G,2 G,3 G, | C2 C>C C2 x2 || %24
w: ||||
w: ||||
w: ||||
w: ||||

